build/img/service-online.svg

<svg width="52" height="55" viewBox="0 0 52 55" fill="none" xmlns="http://www.w3.org/2000/svg">
<path d="M34.3766 34.2383C37.4816 34.2383 39.9988 36.7554 39.9988 39.8605V41.299C39.9988 43.5347 39.1998 45.6968 37.746 47.3953C33.8226 51.979 27.8546 54.2412 19.9911 54.2412C12.1265 54.2412 6.16146 51.9782 2.2457 47.3926C0.796296 45.6953 0 43.5366 0 41.3047V39.8605C0 36.7554 2.51714 34.2383 5.62219 34.2383H34.3766ZM34.3766 37.9883H5.62219C4.58821 37.9883 3.75 38.8265 3.75 39.8605V41.3047C3.75 42.6438 4.22777 43.9391 5.09742 44.9574C8.23069 48.6267 13.1454 50.4912 19.9911 50.4912C26.8369 50.4912 31.7559 48.6266 34.8971 44.9568C35.7694 43.9377 36.2488 42.6404 36.2488 41.299V39.8605C36.2488 38.8265 35.4106 37.9883 34.3766 37.9883ZM45.1261 0.247386C46.0251 -0.266403 47.1705 0.0459392 47.6843 0.945023C50.4108 5.71621 51.8661 11.1236 51.8661 16.7385C51.8661 22.3723 50.401 27.7971 47.657 32.5796C47.1416 33.4778 45.9957 33.7882 45.0975 33.2728C44.1993 32.7575 43.889 31.6116 44.4043 30.7134C46.8246 26.4951 48.1161 21.7131 48.1161 16.7385C48.1161 11.7806 46.8333 7.01385 44.4284 2.80562C43.9146 1.90654 44.227 0.761176 45.1261 0.247386ZM19.9911 4.25003C26.8947 4.25003 32.4911 9.84647 32.4911 16.75C32.4911 23.6536 26.8947 29.25 19.9911 29.25C13.0876 29.25 7.49115 23.6536 7.49115 16.75C7.49115 9.84647 13.0876 4.25003 19.9911 4.25003ZM36.4624 5.23705C37.3626 4.72519 38.5073 5.03999 39.0191 5.94017C40.8756 9.20505 41.8661 12.9019 41.8661 16.7385C41.8661 20.5838 40.871 24.2887 39.0065 27.5589C38.4936 28.4585 37.3486 28.772 36.449 28.2591C35.5494 27.7461 35.2359 26.6011 35.7488 25.7015C37.2928 22.9935 38.1161 19.9281 38.1161 16.7385C38.1161 13.5561 37.2966 10.4973 35.7593 7.79377C35.2474 6.89359 35.5622 5.7489 36.4624 5.23705ZM19.9911 8.00003C15.1587 8.00003 11.2411 11.9175 11.2411 16.75C11.2411 21.5825 15.1587 25.5 19.9911 25.5C24.8236 25.5 28.7411 21.5825 28.7411 16.75C28.7411 11.9175 24.8236 8.00003 19.9911 8.00003Z" fill="white"/>
</svg>

<svg width="52" height="55" fill="none" xmlns="http://www.w3.org/2000/svg"><path d="M34.377 34.238a5.622 5.622 0 015.622 5.623v1.438a9.375 9.375 0 01-2.253 6.096c-3.923 4.584-9.891 6.846-17.755 6.846-7.864 0-13.83-2.263-17.745-6.848A9.375 9.375 0 010 41.305V39.86a5.622 5.622 0 015.622-5.623h28.755zm0 3.75H5.622a1.872 1.872 0 00-1.872 1.873v1.444c0 1.339.478 2.634 1.347 3.652 3.134 3.67 8.048 5.534 14.894 5.534s11.765-1.864 14.906-5.534a5.625 5.625 0 001.352-3.658v-1.438a1.872 1.872 0 00-1.872-1.873zM45.127.248a1.875 1.875 0 012.557.697 31.735 31.735 0 014.182 15.793 31.734 31.734 0 01-4.209 15.842 1.875 1.875 0 01-3.253-1.867c2.42-4.218 3.712-9 3.712-13.975 0-4.957-1.283-9.724-3.688-13.932a1.875 1.875 0 01.698-2.559zM19.99 4.25c6.904 0 12.5 5.596 12.5 12.5s-5.596 12.5-12.5 12.5c-6.903 0-12.5-5.596-12.5-12.5s5.597-12.5 12.5-12.5zm16.471.987a1.875 1.875 0 012.557.703 21.781 21.781 0 012.847 10.798c0 3.846-.995 7.55-2.86 10.82a1.875 1.875 0 11-3.257-1.857 18.031 18.031 0 002.367-8.963c0-3.182-.82-6.24-2.357-8.944a1.875 1.875 0 01.703-2.557zM19.992 8a8.75 8.75 0 100 17.5 8.75 8.75 0 000-17.5z" fill="#fff"/></svg>
